X:147
T:Waltzes simple chords 39
M:3/4
L:1/8
K:Bm
AG2< [F2D,2F,2A,2]G | ^GA [D4D,4F,4A,4] | d2 [c2A,2C2E2G2]>d2 | ^de [A4A,4C4E4G4] | G2 [F2D,2F,2A,2]>G2 |
^GA [D4B,4D4F4] | F4< [E4E,4G,4B,4] | [A,2C2E2G2] A2 | G2 [F2D,2F,2A,2]>G2 |
^GA [D4D,4F,4A,4] | d2 [c2A,2C2E2G2]>d2 | ^de [A4A,4C4E4G4] | G2 [F2D,2F,2A,2]>G2 |
F2 [E2A,2C2E2G2]>F2 | E2 [D2D,2F,2A,2] F2 | A2 [d2D,2F,2A,2] d2 | e2 [f4D,4F,4A,4] |
e2 [d4D,4F,4A,4] | c2 [d2G,2B,2D2] c2 | B4< [A4D,4F,4A,4] | [g4E,4G,4B,4] |
f2 [e4E,4^G,4B,4D4] | d2 [cA,CEG]e5 | [e2A,2C2E2G2] d2 | e2 [f4D,4F,4A,4] |
e2 [d4D,4F,4A,4] | c2 [d2G,2B,2D2] c2 | B2 [A4D,4F,4A,4] | G2 [F2B,2D2F2]>G2 |
F2 [E2A,2C2E2G2]>F2 | E4< [D4D,4F,4A,4] | [D,6F,6A,6] |


